X:8
T:Die vier Branlen - Quatre Branles
C:Susato (1551)
M:C
L:1/8
K:C
%%staves [1 10 2] {(3 4) 5}
V:1 name=Dessus
e2ed cB cd | ef gf e2d2 | e2ed cB cd | efg2 d4 :: ef ga gf ed |
e2c2 c2f2 | f2e2 d4 :: efg2 efg2 | efg2 f2e2 | a2ag f2e2 | a2ag f2e2 |
ef ge fe dc | BA cB c2gf | e2dc d2gf | e2d2 c2gf | e2dc d2gf | e2d2 c4 :|
V:10 name=alto
c2cA A3A | c2c2 c2B2 | c2cB A3A | c2B2 B4 :: c2cA c3A |
G2A2 A2c2 | c2c2B4 :: c2B2 c2B2 | c2Bc (dB)c2 | A2F2 c2c2 | A2F2 c2c2 |
c2c2 c2A2 | G2G2 G2c2 | c2GA B2B2 | c2B2 c2c2 | c2GA B2B2 | Gc2B c4 :|
V:2 name=Tenor
G2GF ED EF | G2G2 G2G2 | G2GF ED EF | G2G2 G4 :: G2GF GA GF |
E2E2 E2A2 | A2G2G4 :: G2GG A2G2 | A2G2 AFG2 | c2cB A2G2 | c2cB A2G2 |
G2GG AG FE | DCD2 E2CD | EFG2 G2D2 | EFG2 E2CD | EFG2 G2D2 | EFG2 E4 :|
V:3 name=Dessus
{A/B/c/d/}e2 ed cB cd | ef gf ed/e/ d2 | e2e/f/e/d/ cB cd | efg2 d4 :: ef ga gf ed |
e2c2 c2f2 | f2e2 d4 :: efg2 efg2 | efg2 f2e2 | a2ag f2e2 | a2ag f2e2 |
ef ge fe dc | BA cB c2gf | e2dc d2gf | e2d2 c2gf | e2dc d2gf | e2d2 c4 :|
V:4 name="Dessus   \nsimplifi"
E2E2 C2C2 | E4 E2D2 | E2E2 C2C2 | E4D4 :: E2G2 G2E2 |
E2C2 C2F2 | F2E2D4 :: E2G2 E2G2 | E2G2 F2E2 | A4 F2E2 | A4 F2E2 |
E2G2 F2D2 | B,2C2 C2G2 | E2D2 D2G2 | E2D2 C2G2 | E2D2 D2G2 | E2D2 C4 :| 
V:5 name=Basse
C,2C,D, A,,3F,, | C,2C,2 C,2G,,2 | C,2C,D, A,,3F,, | C,2G,,2G,,4 :: C,2C,F,, C,3D, |
C,2A,,2 A,,2F,,2 | F,,2C,2 G,,4 :: C,D,E,2 A,,2E,2 | A,,2E,2 D,2C,2 | F,,2F,,G,, A,,B,,C,2 | F,,2F,,G,, A,,B,,C,2 | 
C,2C,2 F,,2F,,2 | G,,2G,,2 C,2E,D, | C,2B,,A,, G,,2G,,2 | C,2G,,2 C,2E,D, | C,2B,,A,, G,,2G,,2 | C,2G,,2 C,4 :|
